!! 00000] TT[WS
!!!OTL: Da qiuqian
!!!ARE: Asia, China, Shanxi Fengping
!! Ethnic Group: Han
!! I, 127
!!!SCT: J0152
!!!YEM: Copyright 1995, estate of Helmut Schaffrath.
**kern
*ICvox
*Ivox
!! Mixed meters:  2/4; 3/4
*M3/4
*k[f#c#g#d#]
*E:
{8cc#
8b#
[4cc#
=1
8cc#]
4b#
8cc#
=2
8cc#
8b#
8cc#
8b
=3
8cc#
8a#
2b}
=4
*M2/4
{8g#
4b
8cc#
=5
8g#
8b
8g#
8f#
=6
8.g#
16f#
8.g#
16f#
=7
4c#
4e
=8
*M3/4
8.e
16c#
2B}
=9
*M2/4
{8.e
16c#
[4e
=10
8e]
4b#
8cc#
=11
8b#
8cc#
8b#
8cc#
=12
8.dd#
16cc#
8dd#
8cc#}
=13
{8b#
8cc#
8b#
8cc#
=14
8b#
8cc#
4b
=15
8b#
8cc#
8b#
8cc#
=16
8b#
8cc#
4b}
=17
{8b#
8cc#
4b#
=18
8g#
8cc#
4b
=19
8b#
8cc#
8b#
8cc#
=20
8b#
8cc#
4b}
=21
{8g#
4b
8cc#
=22
8g#
8b
8g#
8f#
=23
8.g#
16f#
8g#
8f#
=24
4c#
4e
=25
8.e
16c#
4B}
=26
{8f#
8c#
4e
=27
8.d#
16c#
4e
=28
8g#
8g#
8f#
8g#
=29
8ee
8c#
2e}
==
!!!AGN: Xiaodiao. Qingge
!!!ONB: ESAC (Essen Associative Code) Database: CHINA
!!!AMT: irregular
!!!AIN: vox
!!!EED: Helmut Schaffrath
!!!EEV: 1.0
*-
!!!ONB: Tied note syntax fixed by Craig Sapp, 2004/05/03/
